X:11246
T:Mount Edgcomb. GS.116
M:6/8
L:1/8
Q:120
S:George Spencer m/s, Leeds,1831
R:Jig
O:England
A:Leeds
N:Mount Edgcumb near Plymouth
H:1831
Z:vmp.Cherri Graebe
K:G major
GDD BGG | dBB g3 | cde ABc | GAB AFD | GDD BGG |! dBB g3 | aff gee | d3
D3 :||:
ddd eBc | ccc dAB |! BBB cdB | ABG AFD | GDD BGG | dBB g3 | dBB cAA | G3
 [G,3G3] :||
